X:1
T:Varvarinsko Kolo
R:kolo
D:Sava Jeremic
O:Serbia
Z:id:hn-kolo-1
M:2/4
L:1/16
Q:1/4=120
K:Ador ^d =c
e8 | e^dcA cBc2 | c2e2 e^dcA | e^dc2 cBc2 |
e8 | e^dcA cBc2 | c2e2 e^dcA | e^dcA c4 :|
|: A6 Bc | =dcBA B2BE | ^GABc =dcBA | B2e2 BAB2 |
A6 Bc | =dcBA B2BE | Bce^d BA^GA | B2B^G E4 :|
K:Edor
|: ^AB3-B4 | B^AGE G4 | G2B2 G2B2 | B^AGE G4 |
^AB3-B4 | B^AGE G4 | G2B2 G2B2 | B^AGE G4 :|
|: E6 FG | =AGFE F4 | E2FG =AGFE | F4 B,4 |
E6 FG | =AGFE F4 | E2FG =AGFE | F4 F4 :|

